X: 38974
T: Swallow's Nest, The
R: reel
M: 4/4
K: Gmajor
(3DEF|G3 A GEDB,|DEGA BedB|AE (3EEE ABcd|eaba gedB|
DG (3AGF GEDB,|DEGA BABc|dG (3GGG FDAF|DFAF G2 (3DEF|
GABA GEDB,|DEGA BedB|AE (3EEE ABcd|eg (3agf gedB|
GdBA GEDB,|DEGA BG (3ABc|dG (3GGG FDAF|DFAF G2||
Bc|dgag edBA|GBDE GABd|ea^gb aged|BABd ed (3ABc|
eg (3ggg agbg|aged eage|dG (3GGG FDAF|DFAF G2:|

